X:1
T:Title
%%score { ( 1 3 ) | ( 2 4 ) }
L:1/8
Q:1/4=92
M:4/4
K:G
V:1 treble nm="Grand Piano"
V:3 treble 
V:2 bass 
V:4 bass 
V:1
 D>G F>A A>G D>D | E>[EG] [Ec]>[^Dc] [=DB]4 | d>d e>d B>B c>B | %3
w: J.~Howard~Entwisle * * * * * * *|||
 [^CGB]>[CGA] [CGA]>[CGB] [FA]2- [=CFA]2 | D>G F>A A>G d>^d | [Ee]>[EG] [Gc]>[Ge] d4 | %6
w: |||
 e>d c>B [^CA]>[CG] [CF]>[CE] | D>B B>A [B,G]4 | [EG]2 [Ec]>[Ed] [Ec]<[CE] z2 | %9
w: |||
 [B,D]>[DB] [DB]2 [DB]2 z2 | [DA]2 [Fd]>[Fe] [Fd]2 [FA]2 | z4 [Fd]4 | d>d ^c>e d2 z z/ =F/ | %13
w: ||||
 [Ec]2 [EG]>[^DA] [=DB]4 | D2 E>F G .[Dd]3 | [Dd] [Fc]2 [FA] [B,DG]4 |] %16
w: |||
V:2
 [G,B,]>[G,B,D] [G,A,D]>[G,CD] [G,CD]>[G,B,D] [B,,G,]>[B,,G,] | %1
 [C,G,C]>[C,G,] [C,G,]>[C,G,] [G,,G,]4 | %2
 [G,B,G]>[G,B,G] [G,CG]>[G,B,G] [G,DG]>[G,DG] [G,EG]>[G,DG] | E,>E, A,,>A,, D,4 | %4
 [G,B,]>[K:treble][G,B,D] [G,A,D]>[G,CD] [G,CD]>[G,B,D] [G,B,G]>[G,B,=F] | %5
 [C,C]>[C,C] [E,C]>[C,C] [G,B,G]4 | %6
 [E,^G,E]>[E,G,E] [E,G,D]>[E,G,D] [A,,A,]>[A,,A,] [A,,A,]>[A,,=G,] | %7
 [D,B,]>[D,G,D] [D,F,D]>[D,F,C] [G,,G,]4 | [C,G,]2 [C,G,]>[C,G,] [C,G,]<[C,G,] z2 | %9
 [G,,G,]>[G,,G,] [G,,G,]2 [G,,G,]2 z2 | [D,F,]2 [D,A,]>[D,A,] [D,A,]2 [D,D]2 | %11
 [G,DG]2 [A,G]>[A,G][K:bass] A,2 z2 | [G,B,G]>[G,B,G] [G,_B,G]>[G,B,G] [G,=B,G]2[K:bass] [G,D]2 | %13
 [C,G,]2 [C,G,]>[C,G,] [G,,G,]4 | D,2 E,>F, G, .[B,,G,]3 | [D,F,] [D,A,]2 [D,C] [G,,G,]4 |] %16
V:3
 x8 | x8 | x8 | z4 D2 z2 | x8 | x8 | x8 | x8 | x8 | x8 | x8 | B2 ^c>c z2 C2 | z4 z2 B2 | x8 | x8 | %15
 x8 |] %16
V:4
 x8 | x8 | x8 | x8 | x3/2[K:treble] x13/2 | x8 | x8 | x8 | x8 | x8 | x8 | z4[K:bass] D,4 | %12
 x6[K:bass] x2 | x8 | x8 | x8 |] %16

